X:1
T:Title
%%score { ( 1 3 5 ) | ( 2 4 ) }
L:1/8
M:4/4
K:D
V:1 treble nm="Grand Piano"
V:3 treble 
V:5 treble 
V:2 bass 
V:4 bass 
V:1
 z4 z2[Q:1/4=104] [DF][EG] | [FA]2 [Fd]2 [Fc]2 [DFB]2 | [CGB]4 [CGA]2 [A,CE][A,DF] | %3
 [A,EG]2 [A,FA]2 [Ac]2 [GB]2 |[M:3/4] G2 z2 z2 |[M:1/4] [A,DF][A,EG] | %6
[M:4/4] [DFA]2 [Fd]2 [Fc]2 [FB]2 | [Ee]4 [FA]2 [FB][Fd] | c2 A2 A2 B2 |[M:3/4] [CA]6 |[M:1/4] AA | %11
[M:4/4] [Fd]6 z2 | [FA]4 z4 | [Gc]6 z2 |[M:3/4] [FA]6 |[M:1/4] [FA][FA] |[M:4/4] [Fd]6 z2 | %17
 z2 ^A,2 B2 dB | A2 [Ad]2 [GB]2 [Gc]2 |[M:3/4] d6 |] %20
V:2
 z4 z2 [D,A,][D,A,] | [D,D]2 [D,A,]2 [D,A,]2 D,2 | E,4 A,,2 G,F, | E,2 D,2 [A,,A,]2 [C,A,]2 | %4
[M:3/4] z2[K:treble] FE F2 |[M:1/4][K:bass] D,D, |[M:4/4] D,2 [D,A,]2 [D,A,]2 [D,A,]2 | %7
 [C,A,]4 [F,C]2 [D,B,][B,,A,] | [E,A,E]2 [E,CE]2 [E,B,D]2 [E,^G,D]2 |[M:3/4] [A,,A,]6 | %10
[M:1/4][K:treble] [A,G][A,G] |[M:4/4][K:bass] [D,A,]2 A,,2 z F [A,,A,]2 | %12
 [E,B,]2 B,,2 [E,B,E]2 [B,,G,]2 | [A,,A,]2 C,2 z G [A,,A,]2 |[M:3/4] [D,A,]2 A,,2 D,2 | %15
[M:1/4] [D,D][D,D] |[M:4/4] z4 A,2 z2 | [G,^A,]2 G,2[K:treble] [G,B,D]2 [^G,B,=F][G,DF] | %18
 [A,DF]2[K:bass] [F,D]2 [E,D]2 [A,,A,]2 |[M:3/4] A,2 z2 z2 |] %20
V:3
 x8 | x8 | x8 | x8 |[M:3/4] [DA]6 |[M:1/4] x2 |[M:4/4] x8 | x8 | x8 |[M:3/4] x6 |[M:1/4] x2 | %11
[M:4/4] z2 A,2 z c [FB]>[DF] | z2 B,2 G2 [EB][Ed] | z2 A,2 z B [FB]>[DF] |[M:3/4] z2 A,2 A,2 | %15
[M:1/4] x2 |[M:4/4] z2 A,2 z c[Fe][Fd] | [Ec]4 z4 | x8 |[M:3/4] F2 G2 F2 |] %20
V:4
 x8 | x8 | x8 | x8 |[M:3/4] D,6[K:treble] |[M:1/4][K:bass] x2 |[M:4/4] x8 | x8 | x8 |[M:3/4] x6 | %10
[M:1/4][K:treble] x2 |[M:4/4][K:bass] z4 D,2 z2 | x8 | z4 E,2 z2 |[M:3/4] x6 |[M:1/4] x2 | %16
[M:4/4] [D,A,]2 F,2 z F [D,A,]2 | x4[K:treble] x4 | x2[K:bass] x6 |[M:3/4] D,2- [D,-B,]2 [D,A,]2 |] %20
V:5
 x8 | x8 | x8 | x8 |[M:3/4] x6 |[M:1/4] x2 |[M:4/4] x8 | x8 | x8 |[M:3/4] x6 |[M:1/4] x2 | %11
[M:4/4] z4 A,2 z2 | x8 | z4 A,2 z2 |[M:3/4] x6 |[M:1/4] x2 |[M:4/4] x8 | x8 | x8 |[M:3/4] x6 |] %20

